svg/600/outlined/rotate_90_degrees_cw.svg

<svg xmlns="http://www.w3.org/2000/svg" width="48" height="48" viewBox="0 -960 960 960"><path d="M430.913-65.304q-75.826 0-142.87-29.347Q220.999-124 170.238-174.478q-50.761-50.478-80.109-117.804-29.347-67.327-29.347-143.153 0-150.522 106.978-259.478 106.978-108.957 257.5-110.653h40.305l-74.956-74.956 53.609-52.479 166.478 167.044-166.478 167.044-53.609-53.044 74.39-74.391H425.26q-118.608 2.827-201.934 87.848Q140-553.478 140-435.435q0 120.305 85.587 205.609t205.326 85.304q52.304 0 98.456-13.152t86.457-46.152l56.131 58.696Q623.261-103.434 560-84.369q-63.261 19.065-129.087 19.065Zm273.305-141.13L469.782-441.435l234.436-235 235.566 235-235.566 235.001Zm0-100.088L835.13-437.435 704.218-568.348 573.87-437.435l130.348 130.913Zm.565-130.913Z"/></svg>

<svg xmlns="http://www.w3.org/2000/svg" width="48" height="48" viewBox="0 -960 960 960"><path d="M430.91-65.3q-75.82 0-142.87-29.35Q221-124 170.24-174.48q-50.76-50.48-80.11-117.8-29.35-67.33-29.35-143.15 0-150.53 106.98-259.48 106.98-108.96 257.5-110.66h40.3l-74.95-74.95L444.22-933 610.7-765.96 444.22-598.91l-53.61-53.05L465-726.35h-39.74q-118.61 2.83-201.93 87.85Q140-553.48 140-435.43q0 120.3 85.59 205.6 85.58 85.31 205.32 85.31 52.31 0 98.46-13.15 46.15-13.16 86.46-46.16l56.13 58.7q-48.7 41.7-111.96 60.76Q496.74-65.3 430.91-65.3Zm273.31-141.13-234.44-235 234.44-235.01 235.56 235.01-235.56 235Zm0-100.09 130.91-130.91-130.91-130.92-130.35 130.92 130.35 130.91Zm.56-130.91Z"/></svg>
